X:951
T:Britches Maker, The
S:Gow
Z:Nigel Gatherer
N:Transposed to Amin for comparison
M:6/8
L:1/8
K:Am
B | c/d/ec B/c/dB | cAA A2B | c/B/c/d/e/f/ gec | BGG G2B |
c/d/ec B/c/dB | Aca g2f | e>dc B>cd | ecA A :|
B | c>d/e/f/ gec | gec gec | d>e/f/g/ afd | afd afd |
c>d/e/f/ gab | c'>ba gfe | dcB e2B | cAA A2 :|
<end>
<start>
